src/assets/icons/weeks,simple,23.svg

<svg width="48" height="48" viewBox="0 0 48 48" fill="none" xmlns="http://www.w3.org/2000/svg">
<rect opacity="0.2" x="5" y="5" width="38" height="38" rx="4" fill="black"/>
<path d="M5 13C5 9.22876 5 7.34315 6.17157 6.17157C7.34315 5 9.22876 5 13 5H35C38.7712 5 40.6569 5 41.8284 6.17157C43 7.34315 43 9.22876 43 13V15H5V13Z" fill="black"/>
<path d="M9.94602 38H22.3892V34.983H15.0597V34.8636L17.608 32.3665C21.196 29.0938 22.1591 27.4574 22.1591 25.4716C22.1591 22.446 19.6875 20.3068 15.946 20.3068C12.2812 20.3068 9.76705 22.4972 9.77557 25.9233H13.2784C13.2699 24.2528 14.3267 23.2301 15.9205 23.2301C17.4545 23.2301 18.5966 24.1847 18.5966 25.7188C18.5966 27.108 17.7443 28.0625 16.1591 29.5881L9.94602 35.3409V38ZM31.5149 38.2386C35.4354 38.2386 38.2393 36.0824 38.2308 33.0994C38.2393 30.9261 36.8587 29.375 34.2933 29.0511V28.9148C36.245 28.5653 37.5916 27.1847 37.5831 25.2244C37.5916 22.4716 35.1797 20.3068 31.5661 20.3068C27.9865 20.3068 25.2933 22.4034 25.2422 25.4205H28.7791C28.8217 24.0909 30.0405 23.2301 31.549 23.2301C33.0405 23.2301 34.0376 24.1335 34.0291 25.446C34.0376 26.8182 32.87 27.7472 31.1911 27.7472H29.5632V30.4574H31.1911C33.1683 30.4574 34.4041 31.446 34.3956 32.8523C34.4041 34.2415 33.2109 35.196 31.5234 35.196C29.8956 35.196 28.6768 34.3438 28.6087 33.0653H24.8928C24.9524 36.1165 27.6797 38.2386 31.5149 38.2386Z" fill="black"/>
</svg>

<svg xmlns="http://www.w3.org/2000/svg" width="48" height="48" fill="none" viewBox="0 0 48 48">
  <rect width="38" height="38" x="5" y="5" fill="#000" opacity=".2" rx="4"/>
  <path fill="#000" d="M5 13c0-3.771 0-5.657 1.172-6.828C7.343 5 9.229 5 13 5h22c3.771 0 5.657 0 6.828 1.172C43 7.343 43 9.229 43 13v2H5v-2zM9.946 38h12.443v-3.017h-7.33v-.12l2.549-2.496c3.588-3.273 4.551-4.91 4.551-6.895 0-3.026-2.471-5.165-6.213-5.165-3.665 0-6.179 2.19-6.17 5.616h3.502c-.008-1.67 1.049-2.693 2.643-2.693 1.534 0 2.676.955 2.676 2.489 0 1.389-.853 2.343-2.438 3.87L9.946 35.34V38zm21.569.239c3.92 0 6.724-2.157 6.716-5.14.008-2.173-1.372-3.724-3.938-4.048v-.136c1.952-.35 3.299-1.73 3.29-3.69.009-2.753-2.403-4.918-6.017-4.918-3.58 0-6.273 2.096-6.324 5.114h3.537c.043-1.33 1.262-2.19 2.77-2.19 1.492 0 2.489.902 2.48 2.215.009 1.372-1.159 2.301-2.838 2.301h-1.628v2.71h1.628c1.977 0 3.213.989 3.205 2.395.008 1.39-1.185 2.344-2.873 2.344-1.627 0-2.846-.852-2.914-2.13h-3.716c.06 3.05 2.787 5.173 6.622 5.173z"/>
</svg>
